rospo-icon-theme-classic-common/48x48/apps/foursquare.svg

<svg height="48" width="48" xmlns="http://www.w3.org/2000/svg"><rect height="40" opacity=".2" rx="2" transform="matrix(0 -1 -1 0 0 0)" width="40" x="-45" y="-44"/><rect fill="#fa4778" height="40" rx="2" transform="matrix(0 -1 -1 0 0 0)" width="40" x="-44" y="-44"/><path d="m6 4c-1.108 0-2 .892-2 2v1c0-1.108.892-2 2-2h36c1.108 0 2 .892 2 2v-1c0-1.108-.892-2-2-2z" fill="#fff" opacity=".2"/><path d="m32.5 12.5h-18v25l8-9h7l1.5-8h-8.5 8.5z" fill="none" opacity=".2" stroke="#000" stroke-linejoin="round" stroke-width="3"/><path d="m32.5 11.5h-18v25l8-9h7l1.5-8h-8.5 8.5z" fill="none" stroke="#fff" stroke-linejoin="round" stroke-width="3"/></svg>

<svg xmlns="http://www.w3.org/2000/svg" width="48" height="48" version="1">
 <rect style="opacity:0.2" width="40" height="40" x="-45" y="-44" rx="2" ry="2" transform="matrix(0,-1,-1,0,0,0)"/>
 <rect style="fill:#fa4778" width="40" height="40" x="-44" y="-44" rx="2" ry="2" transform="matrix(0,-1,-1,0,0,0)"/>
 <path style="opacity:0.2;fill:#ffffff" d="M 6,4 C 4.892,4 4,4.892 4,6 L 4,7 C 4,5.892 4.892,5 6,5 l 36,0 c 1.108,0 2,0.892 2,2 L 44,6 C 44,4.892 43.108,4 42,4 L 6,4 Z"/>
 <path style="fill:none;stroke:#000000;stroke-width:3;stroke-linejoin:round;opacity:0.2" d="M 32.5,12.5 H 14.5 V 37.5 L 22.5,28.5 H 29.5 L 31,20.5 H 22.5 31 Z"/>
 <path style="fill:none;stroke:#ffffff;stroke-width:3;stroke-linejoin:round" d="M 32.5,11.5 H 14.5 V 36.5 L 22.5,27.5 H 29.5 L 31,19.5 H 22.5 31 Z"/>
</svg>
